X: 1
T: John Donald of Coullie
R: polka
Z: 2004 John Chambers <jc:trillian.mit.edu>
M: 2/4
L: 1/16
K: A
E2 \
| "A"AAAA "E7"G2G2 | "D"F2F2 "A"E4 | cAGA "E7"d2B2 | "D"F4 F4 \
| "E7"BBBB "A"A2A2 | "E7"G2G2 "Bm"F4 | "E7"EEEE d2d2 | "A"c2E2 "E7"E2G2 |
| "A"AAAA "E7"G2G2 | "D"F2F2 "A"E4 | cAGA "E7"d2B2 | "D"F4 F4 \
| "Bm"BBBB F2F2 | "A"cccc E2E2 | "Bm"FFFF "E7"G2G2 | c2B2 "A"A2 |]
E2 \
| "A"cccc A2c2 | f2e2 c4 | aecA GABc | "D"d2f2 F4 \
| "E7"BBBB ^A2B2 | g2g2 g4 | "Bm"ffff d2B2 | "A"A2a2 "E7"e2fg |
| "A"a2A2 cABc | "D"F2A2 "A"E4 | cAGA "A7"B2A2 | "D"f4 f2a2 \
| "E7"gggg "D"f2f2 | "A"eeee "Bm"d2d2 | "D"FFFF "E7"c2B2 | "A"A6 |]
